X:488
T: Hua guzi
N: C0214
O: China,Shaanxi
S: Zhongguo Minge Xuan, S. 148]
N: Krzeste Vorschlge ausgelassen
R: Xiaodiao]
M: 2/4
L: 1/16
K: A
EEEFA2AB | c2f2fe3 | c2cBAF3
AAABc2Bc | B2BCE3E | F2AFE4
EEEFA2AB | c2e4cA | B4cBAF
E2EFA2AB | c2c2B2
BG | F2FCE2E2 | F2AFE4

